svg/fluentui-system-icons/ic_fluent_form_multiple_24_filled.svg

<svg width="24" height="24" viewBox="0 0 24 24" fill="none" xmlns="http://www.w3.org/2000/svg">
<path d="M7.25 11.5C6.83579 11.5 6.5 11.8358 6.5 12.25C6.5 12.6642 6.83579 13 7.25 13C7.66421 13 8 12.6642 8 12.25C8 11.8358 7.66421 11.5 7.25 11.5Z" fill="#212121"/>
<path d="M6.25 3C4.45507 3 3 4.45507 3 6.25V15.25C3 17.0449 4.45507 18.5 6.25 18.5H15.25C17.0449 18.5 18.5 17.0449 18.5 15.25V6.25C18.5 4.45507 17.0449 3 15.25 3H6.25ZM5 12.25C5 11.0074 6.00736 10 7.25 10C8.49264 10 9.5 11.0074 9.5 12.25C9.5 13.4926 8.49264 14.5 7.25 14.5C6.00736 14.5 5 13.4926 5 12.25ZM10.5 12.25C10.5 11.8358 10.8358 11.5 11.25 11.5H15.75C16.1642 11.5 16.5 11.8358 16.5 12.25C16.5 12.6642 16.1642 13 15.75 13H11.25C10.8358 13 10.5 12.6642 10.5 12.25ZM5 7.75C5 7.33579 5.33579 7 5.75 7H15.75C16.1642 7 16.5 7.33579 16.5 7.75C16.5 8.16421 16.1642 8.5 15.75 8.5H5.75C5.33579 8.5 5 8.16421 5 7.75Z" fill="#212121"/>
<path d="M8.74995 21.0002C7.59927 21.0002 6.58826 20.4022 6.01074 19.5H8.72444L8.74995 19.5002H15.7499C17.821 19.5002 19.5 17.8212 19.5 15.7502V6.01108C20.402 6.58861 21 7.59956 21 8.75017V15.7502C21 18.6497 18.6494 21.0002 15.7499 21.0002H8.74995Z" fill="#212121"/>
</svg>

<svg xmlns="http://www.w3.org/2000/svg" width="24" height="24"><path d="M7.25 11.5a.75.75 0 1 0 0 1.5.75.75 0 0 0 0-1.5Z"/><path d="M6.25 3A3.25 3.25 0 0 0 3 6.25v9a3.25 3.25 0 0 0 3.25 3.25h9a3.25 3.25 0 0 0 3.25-3.25v-9A3.25 3.25 0 0 0 15.25 3h-9ZM5 12.25a2.25 2.25 0 1 1 4.5 0 2.25 2.25 0 0 1-4.5 0Zm5.5 0a.75.75 0 0 1 .75-.75h4.5a.75.75 0 0 1 0 1.5h-4.5a.75.75 0 0 1-.75-.75ZM5 7.75A.75.75 0 0 1 5.75 7h10a.75.75 0 0 1 0 1.5h-10A.75.75 0 0 1 5 7.75Z"/><path d="M8.75 21a3.247 3.247 0 0 1-2.74-1.5h9.74a3.75 3.75 0 0 0 3.75-3.75V6.011a3.248 3.248 0 0 1 1.5 2.74v7A5.25 5.25 0 0 1 15.75 21h-7Z"/></svg>
